images/events.svg

<svg height="32" viewBox="0 0 32 32" width="32" xmlns="http://www.w3.org/2000/svg"><path d="m26 14h-2v2h2a3.0033 3.0033 0 0 1 3 3v4h2v-4a5.0058 5.0058 0 0 0 -5-5z"/><path d="m24 4a3 3 0 1 1 -3 3 3 3 0 0 1 3-3m0-2a5 5 0 1 0 5 5 5 5 0 0 0 -5-5z"/><path d="m23 30h-2v-2a3.0033 3.0033 0 0 0 -3-3h-4a3.0033 3.0033 0 0 0 -3 3v2h-2v-2a5.0059 5.0059 0 0 1 5-5h4a5.0059 5.0059 0 0 1 5 5z"/><path d="m16 13a3 3 0 1 1 -3 3 3 3 0 0 1 3-3m0-2a5 5 0 1 0 5 5 5 5 0 0 0 -5-5z"/><path d="m8 14h-2a5.0059 5.0059 0 0 0 -5 5v4h2v-4a3.0033 3.0033 0 0 1 3-3h2z"/><path d="m8 4a3 3 0 1 1 -3 3 3 3 0 0 1 3-3m0-2a5 5 0 1 0 5 5 5 5 0 0 0 -5-5z"/><path d="m0 0h32v32h-32z" fill="none"/></svg>

<svg id="icon" xmlns="http://www.w3.org/2000/svg" width="32" height="32" viewBox="0 0 32 32"><defs><style>.cls-1{fill:none;}</style></defs><title>events</title><path d="M26,14H24v2h2a3.0033,3.0033,0,0,1,3,3v4h2V19A5.0058,5.0058,0,0,0,26,14Z" transform="translate(0 0)"/><path d="M24,4a3,3,0,1,1-3,3,3,3,0,0,1,3-3m0-2a5,5,0,1,0,5,5A5,5,0,0,0,24,2Z" transform="translate(0 0)"/><path d="M23,30H21V28a3.0033,3.0033,0,0,0-3-3H14a3.0033,3.0033,0,0,0-3,3v2H9V28a5.0059,5.0059,0,0,1,5-5h4a5.0059,5.0059,0,0,1,5,5Z" transform="translate(0 0)"/><path d="M16,13a3,3,0,1,1-3,3,3,3,0,0,1,3-3m0-2a5,5,0,1,0,5,5A5,5,0,0,0,16,11Z" transform="translate(0 0)"/><path d="M8,14H6a5.0059,5.0059,0,0,0-5,5v4H3V19a3.0033,3.0033,0,0,1,3-3H8Z" transform="translate(0 0)"/><path d="M8,4A3,3,0,1,1,5,7,3,3,0,0,1,8,4M8,2a5,5,0,1,0,5,5A5,5,0,0,0,8,2Z" transform="translate(0 0)"/><rect id="_Transparent_Rectangle_" data-name="&lt;Transparent Rectangle&gt;" class="cls-1" width="32" height="32"/></svg>
